apps/common/main/resources/img/toolbar/2.5x/big/btn-menu-comments.svg

<svg width="28" height="28" viewBox="0 0 28 28" fill="none" xmlns="http://www.w3.org/2000/svg">
<path d="M8 9H20V10H8V9Z" fill="black"/>
<path d="M8 12H20V13H8V12Z" fill="black"/>
<path d="M14 15H8V16H14V15Z" fill="black"/>
<path fill-rule="evenodd" clip-rule="evenodd" d="M6.5 21L9.5 24L12.5 21H23C24.1046 21 25 20.1046 25 19V7C25 5.89543 24.1046 5 23 5H5C3.89543 5 3 5.89543 3 7V19C3 20.1046 3.89543 21 5 21H6.5ZM9.5 22.5858L6.91421 20H5C4.44772 20 4 19.5523 4 19V7C4 6.44772 4.44772 6 5 6H23C23.5523 6 24 6.44771 24 7V19C24 19.5523 23.5523 20 23 20H12.0858L9.5 22.5858Z" fill="black"/>
</svg>

<svg width="28" height="28" fill="none" xmlns="http://www.w3.org/2000/svg"><path d="M8 9h12v1H8V9zM8 12h12v1H8v-1zM14 15H8v1h6v-1z" fill="#000"/><path fill-rule="evenodd" clip-rule="evenodd" d="m6.5 21 3 3 3-3H23a2 2 0 0 0 2-2V7a2 2 0 0 0-2-2H5a2 2 0 0 0-2 2v12a2 2 0 0 0 2 2h1.5zm3 1.586L6.914 20H5a1 1 0 0 1-1-1V7a1 1 0 0 1 1-1h18a1 1 0 0 1 1 1v12a1 1 0 0 1-1 1H12.086L9.5 22.586z" fill="#000"/></svg>
